X: 03040
T: The HOUSE BY THE RIVER
C: Bob McQuillen 2 Aug 76
B: Bob's Note Book 03 #40
%R: reel, hornpipe
%D:1976
Z: 2020 John Chambers <jc:trillian.mit.edu>
M: C
L: 1/8
K: G
GE \
| DGGA G3B | AGAB A2Bc | dgeg dBGB | AGAB A2BA |
| DGGA G3B | AGAB A2Bc | dgeg egdg | dBAB G2  :|
|: Bc \
| dgeg dgeg | ageg d2Bc | dgeg dedB | AGFE D2Bc |
| dgeg dgeg | agfe dcBc | dgfe dcBA | B2G2 G2  :|
%%begintext align
%% I spent a great night in
%% this house with Pete
%% and April. Lots of Cabbage.
%% Yum.
%%endtext

%%sep 1 1 500

%%sep 1 1 500

